Adwaita++-Light/panel/24/museeks-tray.svg

<svg height="24" width="24" xmlns="http://www.w3.org/2000/svg">
  <g fill="#444">
    <path d="m16.833984 4-4.978515 5.544922 1.945312 1.703125.861328.751953-5.4316405 4.751953-.2558594.222656 1.5449219 1.544922 4.480469-4.992187v6.472656h5v-16zm-6.314453 7.033203-3.5410157 3.945313.5800782.580078.3535156-.310547 3.7128909-3.248047z" opacity=".3"/>
    <path d="m13.142857 12-4.5714286 4-4.5714284 4v-15.9999997l4.5714284 3.9999999z"/>
  </g>
</svg>

<svg xmlns="http://www.w3.org/2000/svg" width="24" height="24" version="1.1">
 <defs>
  <style id="current-color-scheme" type="text/css">
   .ColorScheme-Text { color:#444444; } .ColorScheme-Highlight { color:#4285f4; }
  </style>
 </defs>
 <path style="opacity:0.3;fill:currentColor" class="ColorScheme-Text" d="M 16.833984,4 11.855469,9.544922 13.800781,11.248047 14.662109,12 9.2304685,16.751953 8.9746091,16.974609 10.519531,18.519531 15,13.527344 V 20 h 5 V 4 Z M 10.519531,11.033203 6.9785153,14.978516 7.5585935,15.558594 7.9121091,15.248047 11.625,12 Z"/>
 <path style="fill:currentColor" class="ColorScheme-Text" d="M 13.142857,12 8.5714284,16 4,20 V 4.0000003 l 4.5714284,3.9999999 z"/>
</svg>
